Photoshop IT/cyberpunk 02 by freeject.net.CUBE
#Created by: Adobe Photoshop Export Color Lookup Plugin
#Copyright: (C) Copyright 2019 freeject.net
TITLE "cyberpunk 02 by freeject.net"
#LUT size
LUT_3D_SIZE 8
#data domain
#LUT data points
DOMAIN_MIN 0.000000 0.000000 0.000000
DOMAIN_MAX 0.903226 0.903226 0.903226
0.000000 0.000000 0.000000
0.022278 0.000000 0.016144
0.066681 0.000000 0.045258
0.154297 0.000000 0.093933
0.320343 0.000000 0.179169
0.547333 0.000000 0.317719
0.769073 0.000000 0.496094
0.919128 0.000000 0.682648
0.000000 0.023163 0.000000
0.022278 0.023163 0.000000
0.066681 0.000000 0.006226
0.154297 0.000000 0.056274
0.320343 0.000000 0.119324
0.547333 0.000000 0.230682
0.769073 0.000000 0.396179
0.919128 0.000031 0.589264
0.000000 0.068939 0.000000
0.022278 0.068939 0.000000
0.066681 0.068939 0.000000
0.154297 0.036255 0.000000
0.320343 0.000000 0.018127
0.547333 0.000000 0.099915
0.769073 0.000000 0.252625
0.919128 0.000031 0.433960
0.000000 0.159088 0.000000
0.022278 0.159088 0.000000
0.066711 0.159088 0.000000
0.154297 0.159088 0.000000
0.320343 0.122650 0.000000
0.547333 0.029602 0.000000
0.769073 0.000000 0.034973
0.919128 0.000031 0.155396
0.000000 0.327728 0.000000
0.022278 0.327728 0.000000
0.066711 0.327728 0.000000
0.154297 0.327728 0.000000
0.320282 0.327728 0.000000
0.547333 0.317719 0.000000
0.769073 0.117767 0.000000
0.919128 0.018219 0.000000
0.000000 0.554382 0.000000
0.022247 0.554382 0.000000
0.066681 0.554382 0.000000
0.154297 0.554382 0.000000
0.320343 0.554382 0.000000
0.547333 0.554382 0.000000
0.769073 0.554443 0.000000
0.919128 0.319092 0.000000
0.000000 0.772949 0.000000
0.022247 0.772949 0.000000
0.066681 0.772949 0.000000
0.154236 0.772949 0.000000
0.320251 0.772949 0.000000
0.547394 0.772949 0.000000
0.769104 0.772949 0.000000
0.919128 0.772949 0.000000
0.000000 0.920258 0.000000
0.022247 0.920258 0.000000
0.066681 0.920258 0.000000
0.154358 0.920258 0.000000
0.320190 0.920258 0.000000
0.547485 0.920258 0.000000
0.769043 0.920258 0.000000
0.919067 0.920258 0.000000
0.000000 0.048767 0.110046
0.000000 0.020233 0.110046
0.110046 0.000000 0.070801
0.154297 0.000000 0.011230
0.320343 0.000000 0.065186
0.547333 0.000000 0.253357
0.769073 0.000000 0.589783
0.919128 0.000000 0.872253
0.000000 0.081970 0.110046
0.019012 0.062500 0.111084
0.097168 0.019836 0.111115
0.155548 0.019409 0.024963
0.321472 0.019135 0.120209
0.548065 0.018890 0.371429
0.769379 0.018768 0.708191
0.919189 0.018707 0.881165
0.000000 0.110046 0.089478
0.019012 0.111084 0.103058
0.062683 0.090912 0.112244
0.157013 0.064911 0.092773
0.323792 0.062408 0.293060
0.549957 0.060394 0.485382
0.770233 0.059204 0.661133
0.919403 0.058502 0.812683
0.000000 0.159088 0.043549
0.018280 0.160339 0.053467
0.059814 0.162598 0.085388
0.156952 0.162659 0.104187
0.324219 0.104523 0.161438
0.551178 0.099396 0.312805
0.770935 0.096069 0.486847
0.919586 0.094055 0.671844
0.000000 0.327728 0.052063
0.018036 0.328857 0.067535
0.057434 0.331726 0.101440
0.145264 0.333893 0.097046
0.325867 0.333893 0.097046
0.551178 0.206726 0.099396
0.770935 0.096069 0.145142
0.919586 0.094055 0.379333
0.000000 0.554382 0.067902
0.017944 0.555115 0.085388
0.056488 0.557190 0.101715
0.140259 0.559113 0.093964
0.314331 0.559113 0.093964
0.551819 0.559113 0.093964
0.770966 0.481415 0.095398
0.919586 0.207397 0.094055
0.000000 0.772949 0.087494
0.017883 0.773224 0.107788
0.056030 0.774139 0.100769
0.137909 0.775055 0.092499
0.308746 0.775055 0.092499
0.543823 0.775055 0.092499
0.771118 0.775055 0.092499
0.919586 0.771088 0.093048
0.000000 0.920258 0.110077
0.017853 0.920319 0.107788
0.055786 0.920532 0.100311
0.136627 0.920746 0.091675
0.305756 0.920746 0.091675
0.539398 0.920746 0.091675
0.766937 0.920746 0.091675
0.919586 0.920746 0.091675
0.000000 0.096222 0.270447
0.000000 0.059204 0.270447
0.039673 0.000000 0.270447
0.270447 0.000000 0.116272
0.320343 0.000000 0.032745
0.547333 0.000000 0.030762
0.769073 0.000000 0.183380
0.919128 0.000000 0.522552
0.000000 0.147949 0.270447
0.018066 0.115265 0.271606
0.018860 0.030640 0.271698
0.271698 0.018860 0.184906
0.321503 0.018890 0.049011
0.548065 0.018829 0.068024
0.769379 0.018738 0.282654
0.919189 0.018677 0.643066
0.000000 0.233734 0.270447
0.018066 0.211426 0.271606
0.057922 0.154480 0.274536
0.191925 0.060028 0.274658
0.324310 0.060333 0.085358
0.550049 0.059784 0.182312
0.770264 0.058990 0.499451
0.919403 0.058441 0.820068
0.000000 0.270447 0.198853
0.018066 0.271606 0.221283
0.057922 0.274536 0.265533
0.142639 0.216888 0.276794
0.326324 0.149078 0.154724
0.552368 0.145630 0.440948
0.771606 0.140686 0.748383
0.919769 0.137024 0.871155
0.000000 0.327728 0.098083
0.018036 0.328857 0.112915
0.057434 0.331726 0.143677
0.139587 0.334900 0.196655
0.323639 0.332550 0.263031
0.551636 0.263153 0.405090
0.772217 0.251831 0.581757
0.920074 0.242096 0.749939
0.000000 0.554382 0.085876
0.017944 0.555115 0.106445
0.056488 0.557190 0.151245
0.133118 0.560699 0.225037
0.300537 0.562805 0.243835
0.555115 0.562805 0.243835
0.772217 0.387238 0.251831
0.920074 0.242096 0.375702
0.000000 0.772949 0.108551
0.017883 0.773224 0.132294
0.056030 0.774139 0.183289
0.129913 0.775848 0.250397
0.288300 0.777435 0.233704
0.536438 0.777435 0.233704
0.773376 0.777435 0.233704
0.920135 0.698639 0.238892
0.000000 0.920258 0.136749
0.017853 0.920319 0.164459
0.055786 0.920532 0.222778
0.128204 0.920959 0.246887
0.281464 0.921417 0.228027
0.526031 0.921417 0.228027
0.763367 0.921417 0.228027
0.920227 0.921417 0.228027
0.000000 0.155548 0.465881
0.000000 0.103485 0.465881
0.000000 0.019012 0.465881
0.250244 0.000000 0.465881
0.465881 0.000000 0.127106
0.547333 0.000000 0.044739
0.769073 0.000000 0.022400
0.919128 0.000000 0.175995
0.000000 0.226807 0.465881
0.017975 0.181854 0.466736
0.018738 0.091492 0.466797
0.163727 0.018738 0.466797
0.466797 0.018707 0.161377
0.548096 0.018738 0.062836
0.769409 0.018707 0.056213
0.919189 0.018677 0.271606
0.000000 0.346497 0.465881
0.017975 0.319061 0.466736
0.056793 0.233368 0.469177
0.059814 0.058746 0.469330
0.469330 0.058746 0.276001
0.550201 0.058929 0.102997
0.770264 0.058685 0.154663
0.919403 0.058319 0.480103
0.000000 0.465881 0.456177
0.017975 0.449036 0.466736
0.056793 0.399719 0.469177
0.134979 0.307190 0.472992
0.413483 0.139404 0.473145
0.553375 0.140472 0.174866
0.771729 0.138855 0.386200
0.919800 0.136261 0.740234
0.000000 0.465881 0.295624
0.017975 0.466736 0.325714
0.056793 0.469177 0.384399
0.134979 0.472992 0.451233
0.303253 0.404541 0.473785
0.553894 0.313965 0.363037
0.772736 0.307281 0.707855
0.920197 0.297607 0.896149
0.000000 0.554382 0.158203
0.017944 0.555115 0.178833
0.056488 0.557190 0.220215
0.133118 0.560699 0.278809
0.295532 0.562988 0.381348
0.552032 0.560303 0.455414
0.771881 0.457367 0.604645
0.920288 0.444031 0.774994
0.000000 0.772949 0.129395
0.017883 0.773224 0.156372
0.056030 0.774139 0.214111
0.129913 0.775848 0.301117
0.281799 0.777924 0.418152
0.526123 0.778778 0.431976
0.774567 0.778778 0.431976
0.920288 0.626129 0.444031
0.000000 0.920258 0.161163
0.017853 0.920319 0.192566
0.055786 0.920532 0.257019
0.128204 0.920959 0.347931
0.274048 0.921600 0.432892
0.509857 0.922028 0.417389
0.758911 0.922028 0.417389
0.920868 0.922028 0.417389
0.000000 0.228943 0.649292
0.000000 0.159546 0.649292
0.000000 0.081909 0.649292
0.103455 0.000000 0.649292
0.649292 0.000000 0.558807
0.649292 0.000000 0.133942
0.769073 0.000000 0.048706
0.919128 0.000000 0.027924
0.000000 0.315643 0.649292
0.017914 0.261932 0.649811
0.018677 0.143097 0.649811
0.057678 0.018677 0.649811
0.634247 0.018677 0.649811
0.649811 0.018677 0.169006
0.769409 0.018677 0.067352
0.919189 0.018677 0.063324
0.000000 0.460602 0.649292
0.017914 0.418060 0.649811
0.056274 0.322144 0.651398
0.058228 0.161133 0.651459
0.435760 0.058228 0.651459
0.651459 0.058228 0.245514
0.770294 0.058350 0.108459
0.919403 0.058136 0.166016
0.000000 0.591003 0.649292
0.017914 0.564789 0.649811
0.056274 0.513885 0.651398
0.131561 0.401733 0.654297
0.193939 0.135742 0.654388
0.654388 0.135742 0.362335
0.771942 0.136475 0.179962
0.919800 0.135345 0.395172
0.000000 0.649292 0.566376
0.017914 0.649811 0.592682
0.056274 0.651398 0.640442
0.131561 0.604248 0.654297
0.288940 0.500336 0.657043
0.657074 0.296539 0.588806
0.773499 0.298859 0.342621
0.920288 0.293945 0.707764
0.000000 0.649292 0.360596
0.017914 0.649811 0.391724
0.056274 0.651398 0.449677
0.131531 0.654297 0.525574
0.288940 0.657043 0.613617
0.535767 0.610748 0.655060
0.772675 0.544861 0.698486
0.920410 0.535370 0.904114
0.000000 0.772949 0.220917
0.017883 0.773224 0.246155
0.056030 0.774139 0.293854
0.129913 0.775848 0.357208
0.281799 0.777924 0.459137
0.521118 0.778717 0.603638
0.773346 0.777679 0.635681
0.920135 0.640045 0.714600
0.000000 0.920258 0.186249
0.017853 0.920319 0.220764
0.055786 0.920532 0.290009
0.128204 0.920959 0.385529
0.274048 0.921600 0.504578
0.503082 0.922211 0.620514
0.754639 0.922333 0.615143
0.921143 0.922333 0.615143
0.000000 0.312073 0.792084
0.000000 0.228668 0.792084
0.000000 0.126495 0.792084
0.030701 0.000000 0.792084
0.537018 0.000000 0.792084
0.792084 0.000000 0.315948
0.792084 0.000000 0.122620
0.919128 0.000000 0.045776
0.000000 0.408051 0.792084
0.017883 0.349182 0.792328
0.018646 0.207764 0.792328
0.018646 0.036407 0.792328
0.424408 0.018646 0.792328
0.792328 0.018646 0.421021
0.792328 0.018646 0.155243
0.919189 0.018646 0.063843
0.000000 0.563354 0.792084
0.017883 0.514130 0.792328
0.056000 0.414154 0.793060
0.057922 0.230499 0.793152
0.235840 0.057922 0.793152
0.793152 0.057922 0.613831
0.793152 0.057922 0.226471
0.919403 0.057983 0.103271
0.000000 0.692169 0.792084
0.017883 0.667603 0.792328
0.056000 0.615570 0.793060
0.129700 0.495361 0.794586
0.133759 0.219666 0.794708
0.770538 0.133759 0.794708
0.794708 0.133759 0.335449
0.919830 0.134155 0.170776
0.000000 0.792084 0.777802
0.017883 0.787933 0.792328
0.056000 0.752655 0.793060
0.129700 0.700623 0.794586
0.280792 0.590485 0.796509
0.492401 0.288025 0.796600
0.796600 0.288025 0.481689
0.920380 0.289368 0.372894
0.000000 0.792084 0.636322
0.017883 0.792328 0.666138
0.056000 0.793060 0.709015
0.129700 0.794586 0.759430
0.280792 0.779053 0.796509
0.518799 0.692810 0.797424
0.797394 0.526611 0.651184
0.920685 0.527496 0.720886
0.000000 0.792084 0.393036
0.017883 0.792328 0.424225
0.056000 0.793060 0.480896
0.129700 0.794586 0.552460
0.280792 0.796509 0.635864
0.518799 0.797424 0.724670
0.767365 0.786224 0.793427
0.920013 0.769623 0.900543
0.000000 0.920258 0.279633
0.017853 0.920319 0.307526
0.055786 0.920532 0.358734
0.128204 0.920959 0.423431
0.274048 0.921600 0.541687
0.503082 0.922211 0.675385
0.752350 0.922272 0.779144
0.920959 0.922180 0.778931
0.000000 0.399200 0.888519
0.000000 0.307190 0.888519
0.000000 0.182434 0.888519
0.000000 0.016022 0.888519
0.339020 0.000000 0.888519
0.888519 0.000000 0.802338
0.888519 0.000000 0.275177
0.919128 0.000000 0.108307
0.000000 0.499115 0.888519
0.017853 0.438416 0.888611
0.018616 0.282654 0.888611
0.018616 0.109222 0.888611
0.239563 0.018616 0.888611
0.888611 0.018616 0.867920
0.888611 0.018616 0.327087
0.919189 0.018616 0.138123
0.000000 0.651031 0.888519
0.017853 0.603821 0.888611
0.055817 0.504883 0.888947
0.057739 0.309021 0.888977
0.106140 0.057739 0.888977
0.800293 0.057739 0.888977
0.888977 0.057739 0.424988
0.919403 0.057770 0.203186
0.000000 0.774719 0.888519
0.017853 0.754211 0.888611
0.055817 0.698090 0.888947
0.128540 0.584137 0.889618
0.132568 0.356567 0.889679
0.587128 0.132568 0.889679
0.889679 0.132538 0.550385
0.919861 0.132782 0.305023
0.000000 0.866760 0.888519
0.017853 0.852295 0.888611
0.055817 0.823578 0.888947
0.128540 0.780090 0.889618
0.275635 0.672485 0.890564
0.282654 0.283447 0.890625
0.890625 0.282654 0.765503
0.920471 0.283691 0.443542
0.000000 0.888519 0.822906
0.017853 0.888611 0.838684
0.055817 0.888947 0.865753
0.128540 0.881958 0.889618
0.275635 0.842010 0.890564
0.506989 0.761902 0.891388
0.822906 0.514648 0.891388
0.920990 0.516479 0.609161
0.000000 0.888519 0.653717
0.017853 0.888611 0.682526
0.055817 0.888947 0.731445
0.128540 0.889618 0.786530
0.275635 0.890564 0.840332
0.506989 0.891388 0.885284
0.756683 0.841583 0.891083
0.920776 0.762054 0.771698
0.000000 0.920258 0.437714
0.017853 0.920319 0.468750
0.055786 0.920532 0.524628
0.128204 0.920959 0.592346
0.274048 0.921600 0.668518
0.503082 0.922211 0.748108
0.752350 0.922272 0.824615
0.919952 0.921112 0.886871
0.000000 0.486267 0.957092
0.000000 0.390106 0.957092
0.000000 0.249634 0.957092
0.000000 0.070801 0.957092
0.179840 0.000000 0.957092
0.867676 0.000000 0.957092
0.957092 0.000000 0.482635
0.957092 0.000000 0.226624
0.000000 0.585785 0.957092
0.017853 0.525696 0.957123
0.018616 0.363525 0.957123
0.018616 0.199615 0.957123
0.113403 0.018616 0.957123
0.802521 0.018616 0.957123
0.957123 0.018616 0.589600
0.957123 0.018616 0.274292
0.000000 0.727386 0.957092
0.017853 0.684540 0.957123
0.055695 0.590790 0.957245
0.057648 0.391724 0.957245
0.057617 0.083160 0.957245
0.643585 0.057617 0.957245
0.957245 0.057617 0.757721
0.957245 0.057617 0.366272
0.000000 0.839203 0.957092
0.017853 0.822357 0.957123
0.055695 0.767761 0.957245
0.127808 0.665283 0.957428
0.131744 0.441467 0.957458
0.390839 0.131744 0.957458
0.957458 0.131744 0.901245
0.957458 0.131744 0.487732
0.000000 0.914673 0.957092
0.017853 0.902557 0.957123
0.055695 0.878571 0.957245
0.127808 0.838959 0.957428
0.272186 0.743713 0.957794
0.279114 0.469879 0.957794
0.890320 0.279114 0.957794
0.957794 0.279114 0.629639
0.000000 0.957092 0.933624
0.017853 0.957123 0.944427
0.055695 0.951447 0.957245
0.127808 0.926422 0.957428
0.272186 0.892181 0.957794
0.498627 0.818268 0.958099
0.656219 0.506165 0.958130
0.958130 0.506165 0.771454
0.000000 0.957092 0.844879
0.017853 0.957123 0.862732
0.055695 0.957245 0.888123
0.127808 0.957428 0.915619
0.272186 0.957794 0.945526
0.498627 0.937561 0.958099
0.747040 0.884918 0.958252
0.958252 0.751587 0.895477
0.000000 0.957092 0.646790
0.017853 0.957123 0.675385
0.055695 0.957245 0.723724
0.127808 0.957428 0.777954
0.272186 0.957794 0.832672
0.498627 0.958099 0.885559
0.747040 0.958252 0.934845
0.917389 0.941284 0.957703
