Photoshop IT/cyberpunk 02 by freeject.net.3DL
#Created by: Adobe Photoshop Export Color Lookup Plugin
#Copyright: (C) Copyright 2019 freeject.net
#Description: cyberpunk 02 by freeject.net
0 33 66 99 132 165 198 231 264 297 330 363 396 429 462 495 528 561 594 627 660 693 726 759 792 825 858 891 924 957 990 1023
0 0 0
0 62 116
0 112 223
0 156 330
0 200 451
0 245 588
0 292 745
0 342 920
0 394 1107
0 450 1303
0 509 1504
0 571 1706
0 637 1908
0 707 2105
0 780 2298
0 858 2483
0 938 2659
0 1020 2824
0 1104 2977
0 1190 3117
0 1278 3244
0 1366 3357
0 1455 3460
0 1545 3554
0 1635 3638
0 1725 3717
0 1814 3789
0 1903 3856
0 1991 3919
0 2079 3980
0 2165 4038
0 2250 4095
0 14 0
0 77 116
0 128 223
0 174 330
0 219 451
0 266 588
0 316 745
0 368 920
0 423 1107
0 481 1303
0 542 1504
0 608 1706
0 677 1908
0 750 2105
0 827 2298
0 906 2483
0 989 2659
0 1073 2824
0 1160 2977
0 1248 3117
0 1337 3244
0 1427 3357
0 1516 3460
0 1606 3554
0 1697 3638
0 1787 3717
0 1877 3789
0 1967 3856
0 2055 3919
0 2141 3980
0 2227 4038
0 2312 4095
0 36 0
0 97 116
0 154 223
0 202 330
0 251 451
0 302 588
0 355 745
0 411 920
0 470 1107
0 532 1303
0 598 1504
0 668 1706
0 743 1908
0 820 2105
0 901 2298
0 985 2483
0 1071 2659
0 1159 2824
0 1247 2977
0 1338 3117
0 1428 3244
0 1520 3357
0 1612 3460
0 1702 3554
0 1795 3638
0 1885 3717
0 1976 3789
0 2065 3856
0 2153 3919
0 2240 3980
0 2324 4038
0 2409 4095
0 63 0
0 116 114
0 182 223
0 240 330
0 293 451
0 348 588
0 406 745
0 466 920
0 531 1107
0 599 1303
0 671 1504
0 747 1706
0 827 1908
0 910 2105
0 996 2298
0 1084 2483
0 1173 2659
0 1264 2824
0 1356 2977
0 1449 3117
0 1542 3244
0 1634 3357
0 1728 3460
0 1820 3554
0 1913 3638
0 2003 3717
0 2094 3789
0 2182 3856
0 2269 3919
0 2355 3980
0 2440 4038
0 2521 4095
0 95 0
0 116 88
0 209 223
0 271 330
0 336 451
0 404 588
0 468 745
0 535 920
0 606 1107
0 681 1303
0 760 1504
0 843 1706
0 929 1908
0 1017 2105
0 1108 2298
0 1200 2483
0 1293 2659
0 1387 2824
0 1482 2977
0 1577 3117
0 1671 3244
0 1765 3357
0 1859 3460
0 1952 3554
0 2044 3638
0 2135 3717
0 2225 3789
0 2313 3856
0 2399 3919
0 2483 3980
0 2565 4038
0 2646 4095
0 131 0
0 131 62
0 223 204
0 308 330
0 378 451
0 451 588
0 529 745
0 612 920
0 697 1107
0 780 1303
0 867 1504
0 956 1706
0 1047 1908
0 1141 2105
0 1236 2298
0 1332 2483
0 1429 2659
0 1525 2824
0 1623 2977
0 1719 3117
0 1815 3244
0 1910 3357
0 2005 3460
0 2097 3554
0 2189 3638
0 2280 3717
0 2368 3789
0 2454 3856
0 2539 3919
0 2620 3980
0 2700 4038
0 2778 4095
0 174 0
0 174 56
0 223 166
0 330 309
0 427 451
0 506 588
0 590 745
0 680 920
0 776 1107
0 877 1303
0 982 1504
0 1085 1706
0 1183 1908
0 1281 2105
0 1380 2298
0 1479 2483
0 1578 2659
0 1678 2824
0 1776 2977
0 1874 3117
0 1971 3244
0 2066 3357
0 2160 3460
0 2253 3554
0 2342 3638
0 2432 3717
0 2519 3789
0 2602 3856
0 2684 3919
0 2764 3980
0 2839 4038
0 2913 4095
0 224 0
0 224 64
0 224 123
0 330 266
0 451 420
0 569 588
0 661 745
0 759 920
0 861 1107
0 969 1303
0 1079 1504
0 1190 1706
0 1306 1908
0 1420 2105
0 1536 2298
0 1639 2483
0 1741 2659
0 1842 2824
0 1941 2977
0 2039 3117
0 2136 3244
0 2230 3357
0 2323 3460
0 2414 3554
0 2503 3638
0 2589 3717
0 2673 3789
0 2754 3856
0 2832 3919
0 2907 3980
0 2979 4038
0 3047 4095
0 282 0
0 282 72
0 282 105
0 330 210
0 451 366
0 588 538
0 742 745
0 847 920
0 957 1107
0 1070 1303
0 1185 1504
0 1301 1706
0 1419 1908
0 1536 2105
0 1653 2298
0 1771 2483
0 1886 2659
0 2001 2824
0 2113 2977
0 2212 3117
0 2307 3244
0 2400 3357
0 2492 3460
0 2580 3554
0 2666 3638
0 2748 3717
0 2828 3789
0 2905 3856
0 2979 3919
0 3049 3980
0 3115 4038
0 3179 4095
0 352 0
0 352 81
0 352 99
0 352 166
0 451 298
0 588 472
0 745 664
0 920 894
0 1062 1107
0 1181 1303
0 1300 1504
0 1420 1706
0 1541 1908
0 1661 2105
0 1779 2298
0 1898 2483
0 2014 2659
0 2129 2824
0 2240 2977
0 2349 3117
0 2455 3244
0 2558 3357
0 2658 3460
0 2747 3554
0 2828 3638
0 2907 3717
0 2981 3789
0 3053 3856
0 3121 3919
0 3185 3980
0 3246 4038
0 3303 4095
0 435 0
0 435 90
0 435 109
0 435 145
0 451 233
0 588 389
0 745 583
0 920 794
0 1107 1039
0 1300 1303
0 1424 1504
0 1548 1706
0 1670 1908
0 1792 2105
0 1912 2298
0 2031 2483
0 2147 2659
0 2259 2824
0 2370 2977
0 2478 3117
0 2581 3244
0 2680 3357
0 2777 3460
0 2869 3554
0 2956 3638
0 3040 3717
0 3117 3789
0 3192 3856
0 3255 3919
0 3313 3980
0 3369 4038
0 3421 4095
0 533 0
0 533 100
0 533 119
0 533 135
0 533 202
0 588 310
0 745 483
0 920 699
0 1107 927
0 1303 1182
0 1504 1453
0 1682 1706
0 1806 1908
0 1929 2105
0 2049 2298
0 2167 2483
0 2281 2659
0 2395 2824
0 2502 2977
0 2607 3117
0 2707 3244
0 2804 3357
0 2896 3460
0 2984 3554
0 3066 3638
0 3144 3717
0 3218 3789
0 3287 3856
0 3351 3919
0 3411 3980
0 3469 4038
0 3522 4095
0 651 0
0 651 110
0 651 130
0 651 146
0 651 178
0 651 260
0 745 388
0 920 577
0 1107 814
0 1303 1059
0 1504 1320
0 1706 1592
0 1908 1868
0 2071 2105
0 2190 2298
0 2308 2483
0 2420 2659
0 2530 2824
0 2636 2977
0 2737 3117
0 2834 3244
0 2926 3357
0 3014 3460
0 3096 3554
0 3172 3638
0 3244 3717
0 3314 3789
0 3377 3856
0 3437 3919
0 3493 3980
0 3546 4038
0 3597 4095
0 792 0
0 792 116
0 792 141
0 792 157
0 792 173
0 792 232
0 792 319
0 920 466
0 1107 671
0 1303 924
0 1504 1187
0 1706 1451
0 1908 1724
0 2105 1995
0 2298 2261
0 2449 2483
0 2560 2659
0 2666 2824
0 2768 2977
0 2865 3117
0 2957 3244
0 3045 3357
0 3127 3460
0 3202 3554
0 3274 3638
0 3341 3717
0 3404 3789
0 3463 3856
0 3519 3919
0 3572 3980
0 3622 4038
0 3669 4095
0 955 0
0 955 116
0 955 153
0 955 170
0 955 186
0 955 205
0 955 287
0 955 380
0 1107 544
0 1303 764
0 1504 1026
0 1706 1310
0 1908 1575
0 2105 1844
0 2298 2112
0 2483 2372
0 2659 2618
0 2801 2824
0 2899 2977
0 2991 3117
0 3078 3244
0 3158 3357
0 3233 3460
0 3305 3554
0 3371 3638
0 3433 3717
0 3491 3789
0 3546 3856
0 3598 3919
0 3647 3980
0 3693 4038
0 3738 4095
0 1139 0
0 1139 116
0 1139 165
0 1139 183
0 1139 199
0 1139 215
0 1139 256
0 1139 344
0 1139 443
0 1303 620
0 1504 853
0 1706 1122
0 1908 1417
0 2105 1693
0 2298 1959
0 2483 2220
0 2659 2472
0 2824 2710
0 2977 2929
0 3111 3117
0 3192 3244
0 3267 3357
0 3336 3460
0 3401 3554
0 3462 3638
0 3520 3717
0 3574 3789
0 3625 3856
0 3673 3919
0 3719 3980
0 3762 4038
0 3804 4095
0 1342 0
0 1342 116
0 1342 178
0 1342 196
0 1342 213
0 1342 230
0 1342 246
0 1342 309
0 1342 402
0 1342 508
0 1504 694
0 1706 935
0 1908 1211
0 2105 1506
0 2298 1801
0 2483 2063
0 2659 2319
0 2824 2564
0 2977 2792
0 3117 3001
0 3244 3185
0 3357 3347
0 3433 3460
0 3493 3554
0 3549 3638
0 3603 3717
0 3652 3789
0 3700 3856
0 3746 3919
0 3788 3980
0 3829 4038
0 3869 4095
0 1560 0
0 1560 116
0 1560 192
0 1560 211
0 1560 228
0 1560 245
0 1560 262
0 1560 278
0 1560 362
0 1560 461
0 1560 574
0 1706 763
0 1908 1012
0 2105 1290
0 2298 1584
0 2483 1885
0 2659 2159
0 2824 2410
0 2977 2648
0 3117 2866
0 3244 3066
0 3357 3241
0 3460 3394
0 3554 3527
0 3631 3638
0 3681 3717
0 3727 3789
0 3772 3856
0 3815 3919
0 3855 3980
0 3893 4038
0 3932 4095
0 1790 0
0 1790 116
0 1790 207
0 1790 226
0 1790 244
0 1790 262
0 1790 279
0 1790 296
0 1790 324
0 1790 417
0 1790 522
0 1790 642
0 1908 828
0 2105 1082
0 2298 1361
0 2483 1653
0 2659 1951
0 2824 2244
0 2977 2493
0 3117 2721
0 3244 2934
0 3357 3123
0 3460 3289
0 3554 3435
0 3638 3563
0 3717 3676
0 3789 3778
0 3841 3856
0 3881 3919
0 3920 3980
0 3957 4038
0 3993 4095
0 2029 0
0 2029 116
0 2029 222
0 2029 242
0 2029 260
0 2029 279
0 2029 297
0 2029 314
0 2029 332
0 2029 375
0 2029 473
0 2029 585
0 2029 711
0 2105 887
0 2298 1144
0 2483 1423
0 2659 1713
0 2824 2006
0 2977 2294
0 3117 2567
0 3244 2789
0 3357 2992
0 3460 3174
0 3554 3331
0 3638 3471
0 3717 3594
0 3789 3703
0 3856 3802
0 3919 3892
0 3980 3976
0 4020 4038
0 4055 4095
0 2270 0
0 2270 116
0 2270 223
0 2270 259
0 2270 278
0 2270 297
0 2270 315
0 2270 334
0 2270 352
0 2270 370
0 2270 426
0 2270 530
0 2270 648
0 2270 781
0 2298 940
0 2483 1198
0 2659 1477
0 2824 1764
0 2977 2053
0 3117 2336
0 3244 2606
0 3357 2849
0 3460 3045
0 3554 3219
0 3638 3370
0 3717 3504
0 3789 3623
0 3856 3728
0 3919 3823
0 3980 3911
0 4038 3993
0 4095 4072
0 2511 0
0 2511 116
0 2511 223
0 2511 276
0 2511 296
0 2511 316
0 2511 335
0 2511 354
0 2511 373
0 2511 392
0 2511 411
0 2511 479
0 2511 588
0 2511 712
0 2511 850
0 2511 1001
0 2659 1245
0 2824 1522
0 2977 1806
0 3117 2091
0 3244 2369
0 3357 2635
0 3460 2879
0 3554 3091
0 3638 3258
0 3717 3404
0 3789 3533
0 3856 3646
0 3919 3749
0 3980 3842
0 4038 3928
0 4095 4009
0 2744 0
0 2744 116
0 2744 223
0 2744 295
0 2744 316
0 2744 336
0 2744 356
0 2744 376
0 2744 396
0 2744 415
0 2744 435
0 2744 455
0 2744 532
0 2744 647
0 2744 777
0 2744 920
0 2744 1073
0 2824 1285
0 2977 1559
0 3117 1840
0 3244 2121
0 3357 2396
0 3460 2655
0 3554 2896
0 3638 3112
0 3717 3293
0 3789 3433
0 3856 3558
0 3919 3669
0 3980 3768
0 4038 3858
0 4095 3943
0 2964 0
0 2964 116
0 2964 222
0 2964 315
0 2964 336
0 2964 358
0 2964 379
0 2964 399
0 2964 419
0 2964 440
0 2964 460
0 2964 481
0 2964 501
0 2964 585
0 2964 706
0 2964 841
0 2964 988
0 2964 1144
0 2977 1316
0 3117 1588
0 3244 1866
0 3357 2143
0 3460 2414
0 3554 2670
0 3638 2907
0 3717 3119
0 3789 3303
0 3856 3459
0 3919 3580
0 3980 3687
0 4038 3784
0 4095 3873
0 3165 0
0 3165 116
0 3165 222
0 3165 329
0 3165 358
0 3165 380
0 3165 402
0 3165 423
0 3165 445
0 3165 465
0 3165 487
0 3165 509
0 3165 530
0 3165 551
0 3165 639
0 3165 766
0 3165 905
0 3165 1055
0 3165 1212
0 3165 1377
0 3244 1609
0 3357 1885
0 3460 2158
0 3554 2424
0 3638 2677
0 3717 2911
0 3789 3120
0 3856 3303
0 3919 3460
0 3980 3598
0 4038 3704
0 4095 3799
0 3344 0
0 3344 116
0 3344 223
0 3344 330
0 3344 381
0 3344 404
0 3344 427
0 3344 449
0 3344 470
0 3344 493
0 3344 515
0 3344 537
0 3344 560
0 3344 582
0 3344 605
0 3344 694
0 3344 825
0 3344 968
0 3344 1120
0 3344 1279
0 3344 1443
0 3357 1624
0 3460 1895
0 3554 2165
0 3638 2429
0 3717 2679
0 3789 2910
0 3856 3118
0 3919 3298
0 3980 3455
0 4038 3591
0 4095 3712
0 3502 0
0 3502 116
0 3502 222
0 3502 330
0 3502 405
0 3502 429
0 3502 452
0 3502 476
0 3502 499
0 3502 521
0 3502 545
0 3502 568
0 3502 591
0 3502 615
0 3502 638
0 3502 662
0 3502 748
0 3502 883
0 3502 1028
0 3502 1183
0 3502 1343
0 3502 1507
0 3502 1674
0 3554 1899
0 3638 2167
0 3717 2427
0 3789 2675
0 3856 2904
0 3919 3111
0 3980 3290
0 4038 3447
0 4095 3583
0 3643 0
0 3643 116
0 3643 223
0 3643 329
0 3643 431
0 3643 456
0 3643 480
0 3643 505
0 3643 528
0 3643 552
0 3643 576
0 3643 600
0 3643 625
0 3643 650
0 3643 674
0 3643 699
0 3643 724
0 3643 802
0 3643 940
0 3643 1088
0 3643 1243
0 3643 1403
0 3643 1568
0 3643 1735
0 3643 1902
0 3717 2161
0 3789 2419
0 3856 2664
0 3919 2892
0 3980 3098
0 4038 3278
0 4095 3434
0 3768 0
0 3768 116
0 3768 222
0 3768 330
