Photoshop IT/cyberpunk 02 by freeject.net.CUBE
#Created by: Adobe Photoshop Export Color Lookup Plugin
#Copyright: (C) Copyright 2019 freeject.net
TITLE "cyberpunk 02 by freeject.net"
#LUT size
LUT_3D_SIZE 5
#data domain
#LUT data points
DOMAIN_MIN 0.000000 0.000000 0.000000
DOMAIN_MAX 0.903226 0.903226 0.903226
0.000000 0.000000 0.000000
0.052795 0.000000 0.036621
0.226807 0.000000 0.130524
0.606598 0.000000 0.359619
0.919128 0.000000 0.682648
0.000000 0.054626 0.000000
0.052795 0.054626 0.000000
0.226807 0.000000 0.014709
0.606598 0.000000 0.179230
0.919128 0.000031 0.476349
0.000000 0.233215 0.000000
0.052795 0.233215 0.000000
0.226807 0.233215 0.000000
0.606598 0.090607 0.000000
0.919128 0.000031 0.045898
0.000000 0.613098 0.000000
0.052795 0.613098 0.000000
0.226776 0.613098 0.000000
0.606689 0.613098 0.000000
0.919128 0.463715 0.000000
0.000000 0.920258 0.000000
0.052795 0.920258 0.000000
0.226898 0.920258 0.000000
0.606628 0.920258 0.000000
0.919067 0.920258 0.000000
0.000000 0.083435 0.224609
0.019226 0.000000 0.224609
0.226807 0.000000 0.038269
0.606598 0.000000 0.093567
0.919128 0.000000 0.622803
0.000000 0.185333 0.224609
0.045685 0.126251 0.227875
0.230194 0.047394 0.082947
0.608398 0.046844 0.284943
0.919342 0.046082 0.845612
0.000000 0.233215 0.092773
0.045624 0.236511 0.129486
0.226196 0.234192 0.223450
0.611115 0.212524 0.488464
0.919983 0.197662 0.781128
0.000000 0.613098 0.086456
0.044464 0.614868 0.138153
0.198578 0.620209 0.196167
0.613251 0.620209 0.196167
0.919983 0.267639 0.197662
0.000000 0.920258 0.130493
0.044128 0.920441 0.197174
0.189758 0.921234 0.187378
0.592621 0.921234 0.187378
0.920074 0.921234 0.187378
0.000000 0.190582 0.561127
0.000000 0.078491 0.561127
0.480255 0.000000 0.561127
0.606598 0.000000 0.061401
0.919128 0.000000 0.081909
0.000000 0.375061 0.561127
0.044525 0.260925 0.563141
0.234253 0.046082 0.563263
0.608490 0.046143 0.115082
0.919342 0.045990 0.251526
0.000000 0.561127 0.515747
0.044525 0.546326 0.563141
0.200256 0.401123 0.568970
0.613525 0.207794 0.272522
0.920044 0.203033 0.717712
0.000000 0.613098 0.207642
0.044464 0.614868 0.266449
0.198273 0.620239 0.385071
0.609314 0.616913 0.555542
0.920258 0.545776 0.818939
0.000000 0.920258 0.173615
0.044128 0.920441 0.254303
0.189331 0.921265 0.423004
0.570557 0.922241 0.517914
0.921082 0.922241 0.517914
0.000000 0.333649 0.819885
0.000000 0.164795 0.819885
0.155548 0.000000 0.819885
0.819885 0.000000 0.299377
0.919128 0.000000 0.058899
0.000000 0.544617 0.819885
0.044220 0.418976 0.820496
0.045776 0.050873 0.820526
0.820526 0.045776 0.483337
0.919342 0.045807 0.110657
0.000000 0.771179 0.819885
0.044220 0.722443 0.820496
0.191986 0.563782 0.822784
0.788544 0.197723 0.822845
0.920105 0.198669 0.255768
0.000000 0.819885 0.643402
0.044220 0.820496 0.709747
0.191986 0.822784 0.795593
0.581329 0.735657 0.824463
0.920746 0.590027 0.729614
0.000000 0.920258 0.317993
0.044128 0.920441 0.385498
0.189331 0.921265 0.504486
0.567596 0.922302 0.716675
0.920776 0.921997 0.810699
0.000000 0.486267 0.957092
0.000000 0.285522 0.957092
0.022339 0.000000 0.957092
0.957092 0.000000 0.952423
0.957092 0.000000 0.226624
0.000000 0.691498 0.957092
0.044098 0.573303 0.957184
0.045624 0.231262 0.957184
0.846741 0.045624 0.957184
0.957184 0.045624 0.340454
0.000000 0.878754 0.957092
0.044098 0.843994 0.957184
0.188416 0.704559 0.957581
0.462585 0.193970 0.957611
0.957611 0.193970 0.556946
0.000000 0.957092 0.915497
0.044098 0.957184 0.941071
0.188416 0.929962 0.957581
0.562531 0.835846 0.958160
0.958160 0.569672 0.803040
0.000000 0.957092 0.646790
0.044098 0.957184 0.710846
0.188416 0.957581 0.805359
0.562531 0.958160 0.898285
0.917389 0.941284 0.957703
