Photoshop IT/cyberpunk 02 by freeject.net.CUBE
#Created by: Adobe Photoshop Export Color Lookup Plugin
#Copyright: (C) Copyright 2019 freeject.net
TITLE "cyberpunk 02 by freeject.net"
#LUT size
LUT_3D_SIZE 32
#data domain
DOMAIN_MIN 0.0 0.0 0.0
DOMAIN_MAX 1.0 1.0 1.0
#LUT data points
0.000000 0.000000 0.000000
0.003235 0.000000 0.002380
0.008423 0.000000 0.006165
0.014771 0.000000 0.010773
0.022278 0.000000 0.016144
0.030914 0.000000 0.022156
0.041016 0.000000 0.028961
0.052795 0.000000 0.036621
0.066681 0.000000 0.045258
0.083160 0.000000 0.055084
0.102814 0.000000 0.066315
0.126282 0.000000 0.079132
0.154297 0.000000 0.093933
0.187744 0.000000 0.110931
0.226807 0.000000 0.130524
0.271179 0.000000 0.153137
0.320343 0.000000 0.179169
0.373352 0.000000 0.208801
0.429535 0.000000 0.241974
0.487915 0.000000 0.278381
0.547333 0.000000 0.317719
0.606598 0.000000 0.359619
0.664276 0.000000 0.403595
0.718964 0.000000 0.449280
0.769073 0.000000 0.496094
0.813599 0.000000 0.543518
0.852936 0.000000 0.590820
0.887848 0.000000 0.637482
0.919128 0.000000 0.682648
0.947571 0.000000 0.725555
0.974213 0.000000 0.765411
1.000000 0.000000 0.801666
0.000000 0.003479 0.000000
0.003235 0.003479 0.000000
0.008423 0.000000 0.000702
0.014771 0.000000 0.007263
0.022278 0.000000 0.012543
0.030914 0.000000 0.018433
0.041016 0.000000 0.025055
0.052795 0.000000 0.032501
0.066681 0.000000 0.040833
0.083160 0.000000 0.050232
0.102814 0.000000 0.060974
0.126282 0.000000 0.073242
0.154297 0.000000 0.087372
0.187744 0.000000 0.103577
0.226807 0.000000 0.122284
0.271179 0.000000 0.143890
0.320343 0.000000 0.168793
0.373352 0.000000 0.197327
0.429535 0.000000 0.229492
0.487915 0.000000 0.265076
0.547333 0.000000 0.303619
0.606598 0.000000 0.345032
0.664276 0.000000 0.388550
0.718964 0.000000 0.434052
0.769073 0.000000 0.480682
0.813599 0.000000 0.528229
0.852936 0.000031 0.575928
0.887848 0.000031 0.622925
0.919128 0.000031 0.669006
0.947571 0.000031 0.712830
0.974213 0.000031 0.753876
1.000000 0.000031 0.791382
0.000000 0.008850 0.000000
0.003235 0.008850 0.000000
0.008423 0.008850 0.000000
0.014771 0.005646 0.000000
0.022278 0.000000 0.002167
0.030914 0.000000 0.010651
0.041016 0.000000 0.019287
0.052795 0.000000 0.026367
0.066681 0.000000 0.034271
0.083160 0.000000 0.043152
0.102814 0.000000 0.053223
0.126282 0.000000 0.064667
0.154297 0.000000 0.077820
0.187744 0.000000 0.092896
0.226807 0.000000 0.110291
0.271179 0.000000 0.130371
0.320343 0.000000 0.153564
0.373352 0.000000 0.180267
0.429535 0.000000 0.210815
0.487915 0.000000 0.244904
0.547333 0.000000 0.282166
0.606598 0.000000 0.322449
0.664276 0.000000 0.365356
0.718964 0.000000 0.410095
0.769073 0.000000 0.456726
0.813599 0.000000 0.504395
0.852936 0.000031 0.552368
0.887848 0.000031 0.600067
0.919128 0.000031 0.646973
0.947571 0.000031 0.692322
0.974213 0.000031 0.735077
1.000000 0.000031 0.774292
0.000000 0.015472 0.000000
0.003235 0.015472 0.000000
0.008423 0.015472 0.000000
0.014771 0.015472 0.000000
0.022278 0.013824 0.000000
0.030914 0.005219 0.000000
0.041016 0.000000 0.003998
0.052795 0.000000 0.013855
0.066681 0.000000 0.024811
0.083160 0.000000 0.035156
0.102814 0.000000 0.044525
0.126282 0.000000 0.055115
0.154297 0.000000 0.067200
0.187744 0.000000 0.080994
0.226807 0.000000 0.097015
0.271179 0.000000 0.115387
0.320343 0.000000 0.136719
0.373352 0.000000 0.161285
0.429535 0.000000 0.189636
0.487915 0.000000 0.221741
0.547333 0.000000 0.257355
0.606598 0.000000 0.296295
0.664276 0.000000 0.337921
0.718964 0.000000 0.382172
0.769073 0.000000 0.427948
0.813599 0.000000 0.475555
0.852936 0.000031 0.523712
0.887848 0.000031 0.572113
0.919128 0.000031 0.620239
0.947571 0.000031 0.666718
0.974213 0.000031 0.711365
1.000000 0.000031 0.753021
0.000000 0.023163 0.000000
0.003235 0.023163 0.000000
0.008423 0.023163 0.000000
0.014771 0.023163 0.000000
0.022278 0.023163 0.000000
0.030914 0.023163 0.000000
0.041016 0.013947 0.000000
0.052795 0.004089 0.000000
0.066681 0.000000 0.006226
0.083160 0.000000 0.017242
0.102814 0.000000 0.029541
0.126282 0.000000 0.043579
0.154297 0.000000 0.056274
0.187744 0.000000 0.068848
0.226807 0.000000 0.083344
0.271179 0.000000 0.100067
0.320343 0.000000 0.119324
0.373352 0.000000 0.141632
0.429535 0.000000 0.167572
0.487915 0.000000 0.197174
0.547333 0.000000 0.230682
0.606598 0.000000 0.267853
0.664276 0.000000 0.308044
0.718964 0.000000 0.350891
0.769073 0.000000 0.396179
0.813599 0.000000 0.443298
0.852936 0.000031 0.491486
0.887848 0.000031 0.540222
0.919128 0.000031 0.589264
0.947571 0.000031 0.636871
0.974213 0.000031 0.683289
1.000000 0.000031 0.727264
0.000000 0.032104 0.000000
0.003235 0.032104 0.000000
0.008423 0.032104 0.000000
0.014771 0.032104 0.000000
0.022278 0.032104 0.000000
0.030914 0.032104 0.000000
0.041016 0.032104 0.000000
0.052795 0.024292 0.000000
0.066681 0.013397 0.000000
0.083160 0.002502 0.000000
0.102814 0.000000 0.008759
0.126282 0.000000 0.020844
0.154297 0.000000 0.034393
0.187744 0.000000 0.050262
0.226807 0.000000 0.069153
0.271179 0.000000 0.084839
0.320343 0.000000 0.102203
0.373352 0.000000 0.122314
0.429535 0.000000 0.145477
0.487915 0.000000 0.172455
0.547333 0.000000 0.203308
0.606598 0.000000 0.238068
0.664276 0.000000 0.276367
0.718964 0.000000 0.317566
0.769073 0.000000 0.361725
0.813599 0.000000 0.408081
0.852936 0.000031 0.455872
0.887848 0.000031 0.505066
0.919128 0.000031 0.554291
0.947571 0.000031 0.603424
0.974213 0.000031 0.651245
1.000000 0.000031 0.697327
0.000000 0.042511 0.000000
0.003235 0.042511 0.000000
0.008423 0.042511 0.000000
0.014771 0.042511 0.000000
0.022278 0.042511 0.000000
0.030914 0.042511 0.000000
0.041016 0.042511 0.000000
0.052795 0.042511 0.000000
0.066681 0.036560 0.000000
0.083160 0.024200 0.000000
0.102814 0.012299 0.000000
0.126282 0.000549 0.000000
0.154297 0.000000 0.011566
0.187744 0.000000 0.024658
0.226807 0.000000 0.039642
0.271179 0.000000 0.057220
0.320343 0.000000 0.078583
0.373352 0.000000 0.103577
0.429535 0.000000 0.124298
0.487915 0.000000 0.148315
0.547333 0.000000 0.176178
0.606598 0.000000 0.208160
0.664276 0.000000 0.244019
0.718964 0.000000 0.283356
0.769073 0.000000 0.325867
0.813599 0.000000 0.370911
0.852936 0.000031 0.418304
0.887848 0.000031 0.466888
0.919128 0.000031 0.516479
0.947571 0.000031 0.566284
0.974213 0.000031 0.615570
1.000000 0.000031 0.663757
0.000000 0.054626 0.000000
0.003235 0.054626 0.000000
0.008423 0.054626 0.000000
0.014771 0.054626 0.000000
0.022278 0.054626 0.000000
0.030914 0.054626 0.000000
0.041016 0.054626 0.000000
0.052795 0.054626 0.000000
0.066681 0.054626 0.000000
0.083160 0.051208 0.000000
0.102814 0.036743 0.000000
0.126282 0.023346 0.000000
0.154297 0.010712 0.000000
0.187744 0.000000 0.001770
0.226807 0.000000 0.014709
0.271179 0.000000 0.028961
0.320343 0.000000 0.045258
0.373352 0.000000 0.064850
0.429535 0.000000 0.088959
0.487915 0.000000 0.118500
0.547333 0.000000 0.150513
0.606598 0.000000 0.179230
0.664276 0.000000 0.211975
0.718964 0.000000 0.248810
0.769073 0.000000 0.289246
0.813599 0.000000 0.332642
0.852936 0.000031 0.378845
0.887848 0.000031 0.426910
0.919128 0.000031 0.476349
0.947571 0.000031 0.526764
0.974213 0.000031 0.576996
1.000000 0.000031 0.626495
0.000000 0.068939 0.000000
0.003265 0.068939 0.000000
0.008423 0.068939 0.000000
0.014771 0.068939 0.000000
0.022278 0.068939 0.000000
0.030914 0.068939 0.000000
0.041016 0.068939 0.000000
0.052795 0.068939 0.000000
0.066681 0.068939 0.000000
0.083160 0.068939 0.000000
0.102814 0.068939 0.000000
0.126282 0.051819 0.000000
0.154297 0.036255 0.000000
0.187744 0.022095 0.000000
0.226807 0.008789 0.000000
0.271179 0.000000 0.004395
0.320343 0.000000 0.018127
0.373352 0.000000 0.033417
0.429535 0.000000 0.051331
0.487915 0.000000 0.073090
0.547333 0.000000 0.099915
0.606598 0.000000 0.133392
0.664276 0.000000 0.174866
0.718964 0.000000 0.214905
0.769073 0.000000 0.252625
0.813599 0.000000 0.293701
0.852936 0.000000 0.338013
0.887848 0.000031 0.385254
0.919128 0.000031 0.433960
0.947571 0.000031 0.484344
0.974213 0.000031 0.534973
1.000000 0.000031 0.586029
0.000000 0.085907 0.000000
0.003235 0.085907 0.000000
0.008423 0.085907 0.000000
0.014771 0.085907 0.000000
0.022278 0.085907 0.000000
0.030914 0.085907 0.000000
0.040985 0.085907 0.000000
0.052795 0.085907 0.000000
0.066681 0.085907 0.000000
0.083191 0.085907 0.000000
0.102814 0.085907 0.000000
0.126282 0.085876 0.000000
0.154297 0.070251 0.000000
0.187744 0.051636 0.000000
0.226807 0.035248 0.000000
0.271179 0.020447 0.000000
0.320343 0.006470 0.000000
0.373352 0.000000 0.007233
0.429535 0.000000 0.021912
0.487915 0.000000 0.038330
0.547333 0.000000 0.058075
0.606598 0.000000 0.082062
0.664276 0.000000 0.111877
0.718964 0.000000 0.149292
0.769073 0.000000 0.196167
0.813599 0.000000 0.251801
0.852936 0.000000 0.297272
0.887848 0.000031 0.342712
0.919128 0.000031 0.390350
0.947571 0.000031 0.440186
0.974213 0.000031 0.490967
1.000000 0.000031 0.542267
0.000000 0.106140 0.000000
0.003235 0.106140 0.000000
0.008392 0.106140 0.000000
0.014771 0.106140 0.000000
0.022278 0.106140 0.000000
0.030914 0.106140 0.000000
0.040985 0.106140 0.000000
0.052795 0.106140 0.000000
0.066681 0.106140 0.000000
0.083160 0.106140 0.000000
0.102814 0.106140 0.000000
0.126282 0.106171 0.000000
0.154297 0.106140 0.000000
0.187744 0.093109 0.000000
0.226807 0.070435 0.000000
0.271179 0.050873 0.000000
0.320343 0.033722 0.000000
0.373352 0.018433 0.000000
0.429535 0.004028 0.000000
0.487915 0.000000 0.010376
0.547333 0.000000 0.025940
0.606598 0.000000 0.043701
0.664276 0.000000 0.065277
0.718964 0.000000 0.091888
0.769073 0.000000 0.125000
0.813599 0.000000 0.166931
0.852936 0.000000 0.218628
0.887848 0.000031 0.279510
0.919128 0.000031 0.346161
0.947571 0.000031 0.394318
0.974213 0.000031 0.445038
1.000000 0.000031 0.496277
0.000000 0.130280 0.000000
0.003265 0.130280 0.000000
0.008423 0.130280 0.000000
0.014771 0.130280 0.000000
0.022278 0.130280 0.000000
0.030884 0.130280 0.000000
0.041016 0.130280 0.000000
0.052765 0.130280 0.000000
0.066681 0.130280 0.000000
0.083191 0.130280 0.000000
0.102844 0.130280 0.000000
0.126251 0.130280 0.000000
0.154297 0.130280 0.000000
0.187744 0.130280 0.000000
0.226807 0.121521 0.000000
0.271179 0.093689 0.000000
0.320343 0.069916 0.000000
0.373352 0.049530 0.000000
0.429535 0.031952 0.000000
0.487915 0.016113 0.000000
0.547333 0.001251 0.000000
0.606598 0.000000 0.013794
0.664276 0.000000 0.030334
0.718964 0.000000 0.049530
0.769073 0.000000 0.073151
0.813599 0.000000 0.102509
0.852936 0.000000 0.139557
0.887848 0.000031 0.186432
0.919128 0.000031 0.242889
0.947571 0.000031 0.309021
0.974213 0.000031 0.380554
1.000000 0.000031 0.448639
0.000000 0.159088 0.000000
0.003235 0.159088 0.000000
0.008423 0.159088 0.000000
0.014801 0.159088 0.000000
0.022278 0.159088 0.000000
0.030914 0.159088 0.000000
0.040985 0.159088 0.000000
0.052765 0.159088 0.000000
0.066711 0.159088 0.000000
0.083160 0.159088 0.000000
0.102783 0.159088 0.000000
0.126312 0.159088 0.000000
0.154297 0.159088 0.000000
0.187744 0.159058 0.000000
0.226807 0.159088 0.000000
0.271179 0.156952 0.000000
0.320343 0.122650 0.000000
0.373352 0.093445 0.000000
0.429535 0.068665 0.000000
0.487915 0.047729 0.000000
0.547333 0.029602 0.000000
0.606598 0.013428 0.000000
0.664276 0.000000 0.001801
0.718964 0.000000 0.017487
0.769073 0.000000 0.034973
0.813599 0.000000 0.055939
0.852936 0.000000 0.081757
0.887848 0.000000 0.114471
0.919128 0.000031 0.155396
0.947571 0.000031 0.207428
0.974213 0.000031 0.268738
1.000000 0.000031 0.338470
0.000000 0.193359 0.000000
0.003235 0.193359 0.000000
0.008392 0.193359 0.000000
0.014771 0.193359 0.000000
0.022278 0.193359 0.000000
0.030914 0.193359 0.000000
0.041016 0.193359 0.000000
0.052795 0.193359 0.000000
0.066681 0.193359 0.000000
0.083191 0.193359 0.000000
0.102814 0.193359 0.000000
0.126251 0.193359 0.000000
0.154297 0.193359 0.000000
0.187744 0.193359 0.000000
0.226807 0.193390 0.000000
0.271179 0.193329 0.000000
0.320343 0.193390 0.000000
0.373352 0.158569 0.000000
0.429535 0.122742 0.000000
0.487915 0.092407 0.000000
0.547333 0.066864 0.000000
0.606598 0.045502 0.000000
0.664276 0.027069 0.000000
0.718964 0.010712 0.000000
0.769073 0.000000 0.005066
0.813599 0.000000 0.021576
0.852936 0.000000 0.040283
0.887848 0.000000 0.062897
0.919128 0.000031 0.091034
0.947571 0.000031 0.126801
0.974213 0.000031 0.172699
1.000000 0.000031 0.229797
0.000000 0.233215 0.000000
0.003265 0.233215 0.000000
0.008423 0.233215 0.000000
0.014771 0.233215 0.000000
0.022278 0.233215 0.000000
0.030914 0.233215 0.000000
0.040985 0.233215 0.000000
0.052795 0.233215 0.000000
0.066681 0.233215 0.000000
0.083191 0.233215 0.000000
0.102844 0.233215 0.000000
0.126312 0.233215 0.000000
0.154327 0.233215 0.000000
0.187775 0.233215 0.000000
0.226807 0.233215 0.000000
0.271179 0.233215 0.000000
0.320343 0.233246 0.000000
0.373352 0.233215 0.000000
0.429535 0.203430 0.000000
0.487915 0.159485 0.000000
0.547333 0.121918 0.000000
0.606598 0.090607 0.000000
0.664276 0.064667 0.000000
0.718964 0.043030 0.000000
0.769073 0.024292 0.000000
0.813599 0.007660 0.000000
0.852936 0.000000 0.008575
0.887848 0.000000 0.025909
0.919128 0.000031 0.045898
0.947571 0.000031 0.070312
0.974213 0.000031 0.101593
1.000000 0.000031 0.141052
0.000000 0.278168 0.000000
0.003235 0.278168 0.000000
0.008423 0.278168 0.000000
0.014801 0.278168 0.000000
0.022278 0.278168 0.000000
0.030914 0.278168 0.000000
0.041016 0.278168 0.000000
0.052795 0.278168 0.000000
0.066681 0.278168 0.000000
0.083160 0.278168 0.000000
0.102783 0.278168 0.000000
0.126312 0.278168 0.000000
0.154297 0.278168 0.000000
0.187744 0.278168 0.000000
0.226807 0.278168 0.000000
0.271149 0.278168 0.000000
0.320343 0.278198 0.000000
0.373352 0.278168 0.000000
0.429535 0.278198 0.000000
0.487915 0.257080 0.000000
0.547333 0.204742 0.000000
0.606598 0.158752 0.000000
0.664276 0.120178 0.000000
0.718964 0.088196 0.000000
0.769073 0.061920 0.000000
0.813599 0.040161 0.000000
0.852936 0.021423 0.000000
0.887848 0.004425 0.000000
0.919128 0.000000 0.012329
0.947571 0.000031 0.030548
0.974213 0.000031 0.052002
1.000000 0.000031 0.078918
0.000000 0.327728 0.000000
0.003265 0.327728 0.000000
0.008392 0.327728 0.000000
0.014801 0.327728 0.000000
0.022278 0.327728 0.000000
0.030914 0.327728 0.000000
0.041016 0.327728 0.000000
0.052795 0.327728 0.000000
0.066711 0.327728 0.000000
0.083191 0.327728 0.000000
0.102783 0.327728 0.000000
0.126312 0.327728 0.000000
0.154297 0.327728 0.000000
0.187683 0.327728 0.000000
0.226776 0.327728 0.000000
0.271149 0.327728 0.000000
0.320282 0.327728 0.000000
0.373352 0.327698 0.000000
0.429535 0.327789 0.000000
0.487915 0.327789 0.000000
0.547333 0.317719 0.000000
0.606598 0.259003 0.000000
0.664276 0.204956 0.000000
0.718964 0.157196 0.000000
0.769073 0.117767 0.000000
0.813599 0.085480 0.000000
0.852936 0.058960 0.000000
0.887848 0.037079 0.000000
0.919128 0.018219 0.000000
0.947571 0.001129 0.000031
0.974213 0.000031 0.016144
1.000000 0.000031 0.035370
0.000000 0.380981 0.000000
0.003265 0.380981 0.000000
0.008423 0.380981 0.000000
0.014771 0.380981 0.000000
0.022308 0.380981 0.000000
0.030914 0.380981 0.000000
0.041016 0.380981 0.000000
0.052765 0.380981 0.000000
0.066650 0.380981 0.000000
0.083160 0.380981 0.000000
0.102783 0.380981 0.000000
0.126251 0.380981 0.000000
0.154327 0.380981 0.000000
0.187744 0.380981 0.000000
0.226898 0.380981 0.000000
0.271149 0.380981 0.000000
0.320343 0.380981 0.000000
0.373383 0.380981 0.000000
0.429535 0.380981 0.000000
0.487915 0.380920 0.000000
0.547333 0.380981 0.000000
0.606598 0.381073 0.000000
0.664276 0.320557 0.000000
0.718964 0.259094 0.000000
0.769073 0.203247 0.000000
0.813599 0.154938 0.000000
0.852936 0.114685 0.000000
0.887848 0.082336 0.000000
0.919128 0.055695 0.000000
0.947571 0.033783 0.000000
0.974213 0.014923 0.000031
1.000000 0.000031 0.002472
0.000000 0.437195 0.000000
0.003235 0.437195 0.000000
0.008423 0.437195 0.000000
0.014771 0.437195 0.000000
0.022278 0.437195 0.000000
0.030914 0.437195 0.000000
0.040985 0.437195 0.000000
0.052795 0.437195 0.000000
0.066681 0.437195 0.000000
0.083160 0.437195 0.000000
0.102875 0.437195 0.000000
0.126251 0.437195 0.000000
0.154327 0.437195 0.000000
0.187683 0.437195 0.000000
0.226837 0.437195 0.000000
0.271118 0.437195 0.000000
0.320374 0.437195 0.000000
0.373260 0.437195 0.000000
0.429565 0.437195 0.000000
0.487915 0.437195 0.000000
0.547333 0.437164 0.000000
0.606598 0.437256 0.000000
0.664276 0.437195 0.000000
0.718964 0.388458 0.000000
0.769073 0.321991 0.000000
0.813599 0.258423 0.000000
0.852936 0.200928 0.000000
0.887848 0.151642 0.000000
0.919128 0.111298 0.000000
0.947571 0.078583 0.000000
0.974213 0.052124 0.000000
1.000000 0.030426 0.000031
0.000000 0.495392 0.000000
0.003235 0.495392 0.000000
0.008423 0.495392 0.000000
0.014801 0.495392 0.000000
0.022308 0.495392 0.000000
0.030884 0.495392 0.000000
0.041016 0.495392 0.000000
0.052826 0.495392 0.000000
0.066681 0.495392 0.000000
0.083160 0.495392 0.000000
0.102844 0.495392 0.000000
0.126312 0.495392 0.000000
0.154327 0.495392 0.000000
0.187653 0.495392 0.000000
0.226807 0.495392 0.000000
0.271240 0.495392 0.000000
0.320435 0.495392 0.000000
0.373291 0.495392 0.000000
0.429535 0.495392 0.000000
0.487915 0.495392 0.000000
0.547333 0.495392 0.000000
0.606598 0.495453 0.000000
0.664276 0.495300 0.000000
0.718964 0.495514 0.000000
0.769073 0.460602 0.000000
0.813599 0.390076 0.000000
0.852936 0.321625 0.000000
0.887848 0.256348 0.000000
0.919128 0.197601 0.000000
0.947571 0.147675 0.000000
0.974213 0.107269 0.000000
1.000000 0.074738 0.000031
0.000000 0.554382 0.000000
0.003235 0.554382 0.000000
0.008392 0.554382 0.000000
0.014771 0.554382 0.000000
0.022247 0.554382 0.000000
0.030914 0.554382 0.000000
0.041016 0.554382 0.000000
0.052765 0.554382 0.000000
0.066681 0.554382 0.000000
0.083191 0.554382 0.000000
0.102814 0.554382 0.000000
0.126251 0.554382 0.000000
0.154297 0.554382 0.000000
0.187775 0.554382 0.000000
0.226776 0.554382 0.000000
0.271149 0.554382 0.000000
0.320343 0.554382 0.000000
0.373352 0.554382 0.000000
0.429565 0.554382 0.000000
0.487885 0.554382 0.000000
0.547333 0.554382 0.000000
0.606598 0.554352 0.000000
0.664276 0.554382 0.000000
0.718964 0.554443 0.000000
0.769073 0.554443 0.000000
0.813599 0.535156 0.000000
0.852936 0.463196 0.000000
0.887848 0.389923 0.000000
0.919128 0.319092 0.000000
0.947571 0.252930 0.000000
0.974213 0.193726 0.000000
1.000000 0.142883 0.000000
0.000000 0.613098 0.000000
0.003265 0.613098 0.000000
0.008392 0.613098 0.000000
0.014801 0.613098 0.000000
0.022278 0.613098 0.000000
0.030914 0.613098 0.000000
0.041016 0.613098 0.000000
0.052795 0.613098 0.000000
0.066681 0.613098 0.000000
0.083191 0.613098 0.000000
0.102875 0.613098 0.000000
0.126282 0.613098 0.000000
0.154266 0.613098 0.000000
0.187744 0.613098 0.000000
0.226776 0.613098 0.000000
0.271118 0.613098 0.000000
0.320374 0.613098 0.000000
0.373291 0.613098 0.000000
0.429474 0.613098 0.000000
0.487823 0.613098 0.000000
0.547455 0.613098 0.000000
0.606689 0.613098 0.000000
0.664276 0.613098 0.000000
0.718964 0.613007 0.000000
0.769073 0.613037 0.000000
0.813599 0.613037 0.000000
0.852936 0.609161 0.000000
0.887848 0.537628 0.000000
0.919128 0.463715 0.000000
0.947571 0.388733 0.000000
0.974213 0.316406 0.000000
1.000000 0.248932 0.000000
0.000000 0.670013 0.000000
0.003235 0.670013 0.000000
0.008392 0.670013 0.000000
0.014801 0.670013 0.000000
0.022278 0.670013 0.000000
0.030884 0.670013 0.000000
0.040985 0.670013 0.000000
0.052795 0.670013 0.000000
0.066681 0.670013 0.000000
0.083130 0.670013 0.000000
0.102814 0.670013 0.000000
0.126312 0.670013 0.000000
0.154266 0.670013 0.000000
0.187775 0.670013 0.000000
0.226776 0.670013 0.000000
0.271118 0.670013 0.000000
0.320282 0.670013 0.000000
0.373352 0.670013 0.000000
0.429565 0.670013 0.000000
0.488007 0.670013 0.000000
0.547333 0.670013 0.000000
0.606598 0.670013 0.000000
0.664246 0.670013 0.000000
0.718964 0.670135 0.000000
0.769073 0.670044 0.000000
0.813599 0.670044 0.000000
0.852936 0.670013 0.000000
0.887848 0.670105 0.000000
0.919128 0.612122 0.000000
0.947571 0.538422 0.000000
0.974213 0.462555 0.000000
1.000000 0.386444 0.000000
0.000000 0.723816 0.000000
0.003265 0.723816 0.000000
0.008453 0.723816 0.000000
0.014771 0.723816 0.000000
0.022278 0.723816 0.000000
0.030884 0.723816 0.000000
0.040985 0.723816 0.000000
0.052765 0.723816 0.000000
0.066711 0.723816 0.000000
0.083191 0.723816 0.000000
0.102875 0.723816 0.000000
0.126282 0.723816 0.000000
0.154358 0.723816 0.000000
0.187653 0.723816 0.000000
0.226746 0.723816 0.000000
0.271179 0.723816 0.000000
0.320374 0.723816 0.000000
0.373260 0.723816 0.000000
0.429626 0.723816 0.000000
0.488007 0.723816 0.000000
0.547394 0.723816 0.000000
0.606506 0.723816 0.000000
0.664276 0.723816 0.000000
0.719055 0.723816 0.000000
0.769073 0.723724 0.000000
0.813599 0.723877 0.000000
0.852936 0.723877 0.000000
0.887848 0.723724 0.000000
0.919128 0.723907 0.000000
0.947571 0.683868 0.000000
0.974213 0.613739 0.000000
1.000000 0.538330 0.000000
0.000000 0.772949 0.000000
0.003204 0.772949 0.000000
0.008392 0.772949 0.000000
0.014771 0.772949 0.000000
0.022247 0.772949 0.000000
0.030914 0.772949 0.000000
0.040985 0.772949 0.000000
0.052795 0.772949 0.000000
0.066681 0.772949 0.000000
0.083191 0.772949 0.000000
0.102844 0.772949 0.000000
0.126251 0.772949 0.000000
0.154236 0.772949 0.000000
0.187683 0.772949 0.000000
0.226776 0.772949 0.000000
0.271149 0.772949 0.000000
0.320251 0.772949 0.000000
0.373383 0.772949 0.000000
0.429565 0.772949 0.000000
0.487823 0.772949 0.000000
0.547394 0.772949 0.000000
0.606506 0.772949 0.000000
0.664368 0.772949 0.000000
0.719025 0.772949 0.000000
0.769104 0.772949 0.000000
0.813599 0.772888 0.000000
0.852936 0.772949 0.000000
0.887848 0.772919 0.000000
0.919128 0.772949 0.000000
0.947571 0.773071 0.000000
0.974213 0.750397 0.000000
1.000000 0.685699 0.000000
0.000000 0.816620 0.000000
0.003204 0.816620 0.000000
0.008392 0.816620 0.000000
0.014740 0.816620 0.000000
0.022247 0.816620 0.000000
0.030945 0.816620 0.000000
0.041046 0.816620 0.000000
0.052765 0.816620 0.000000
0.066650 0.816620 0.000000
0.083099 0.816620 0.000000
0.102844 0.816620 0.000000
0.126282 0.816620 0.000000
0.154358 0.816620 0.000000
0.187805 0.816620 0.000000
0.226685 0.816620 0.000000
0.271149 0.816620 0.000000
0.320435 0.816620 0.000000
0.373260 0.816620 0.000000
0.429474 0.816620 0.000000
0.487823 0.816620 0.000000
0.547241 0.816620 0.000000
0.606598 0.816620 0.000000
0.664185 0.816620 0.000000
0.718872 0.816620 0.000000
0.769104 0.816620 0.000000
0.813629 0.816620 0.000000
0.852936 0.816559 0.000000
0.887848 0.816650 0.000000
0.919128 0.816620 0.000000
0.947571 0.816650 0.000000
0.974213 0.816711 0.000000
1.000000 0.807587 0.000000
0.000000 0.855225 0.000000
0.003235 0.855225 0.000000
0.008362 0.855225 0.000000
0.014771 0.855225 0.000000
0.022247 0.855225 0.000000
0.030884 0.855225 0.000000
0.041046 0.855225 0.000000
0.052734 0.855225 0.000000
0.066650 0.855225 0.000000
0.083221 0.855225 0.000000
0.102844 0.855225 0.000000
0.126373 0.855225 0.000000
0.154388 0.855225 0.000000
0.187805 0.855225 0.000000
0.226746 0.855225 0.000000
0.271271 0.855225 0.000000
0.320465 0.855225 0.000000
0.373291 0.855225 0.000000
0.429535 0.855225 0.000000
0.487976 0.855225 0.000000
0.547302 0.855225 0.000000
0.606506 0.855225 0.000000
0.664368 0.855225 0.000000
0.719086 0.855225 0.000000
0.769135 0.855225 0.000000
0.813538 0.855225 0.000000
0.852997 0.855225 0.000000
0.887848 0.855194 0.000000
0.919128 0.855286 0.000000
0.947571 0.855133 0.000000
0.974213 0.855225 0.000000
1.000000 0.855316 0.000000
0.000000 0.889526 0.000000
0.003265 0.889526 0.000000
0.008362 0.889526 0.000000
0.014740 0.889526 0.000000
0.022278 0.889526 0.000000
0.030884 0.889526 0.000000
0.041046 0.889526 0.000000
0.052795 0.889526 0.000000
0.066681 0.889526 0.000000
0.083160 0.889526 0.000000
0.102814 0.889526 0.000000
0.126251 0.889526 0.000000
0.154266 0.889526 0.000000
0.187683 0.889526 0.000000
0.226685 0.889526 0.000000
0.271149 0.889526 0.000000
